X:1
T:Title
%%score ( 1 2 3 ) { 4 | 5 }
L:1/8
Q:1/4=108
M:4/4
K:D
V:1 treble nm="Church Organ, Unnamed-000"
V:2 treble 
V:3 treble 
V:4 bass nm="Church Organ, Capetown"
V:5 bass 
V:1
 [DA]2 [DF]2 [DB]2 [DA]2 | [DG]2 [CG]2 [DF]4 | [Fd]2 [Ec]2 [Dd]2 [DA]2 | G-[CG] [DF]2 E2- [CE]2 | %4
w: By~Friedrich~Filitz,~1847 * * *||||
 [DA]2 [Fd]2 [Ec]2 [FB]2 | z2 ^G2 A4 | [DF]2 [DF]2 [DE]2 [CE]2 | D8 |] %8
w: ||||
V:2
 x8 | x8 | x8 | .B,2 z2 D2 z2 | x8 | A2 z D D2 C2 | x8 | x8 |] %8
V:3
 x8 | x8 | x8 | x8 | x8 | E4 z4 | x8 | x8 |] %8
V:4
 F,2 A,2 G,2 A,2 | B,2 A,2 A,4 | A,2 A,2 F,2 F,2 | G,2 A,2 A,4 | A,2 A,2 A,2 D2 | C2 B,2 A,4 | %6
 A,2 B,2 B,2 A,2 | F,8 |] %8
V:5
 D,2 D,2 z2 F,2 | E,2 A,,2 D,4 | D,2 A,,2 B,,2 z2 | E,2 D,2 A,,4 | F,2 D,2 z2 D,2 | E,2 E,2 A,,4 | %6
 D,2 B,,2 G,,2 A,,2 | D,8 |] %8

